dist/svgs/crypto-icons/icons/anc.svg

<?xml version="1.0" encoding="UTF-8" standalone="yes"?>
<svg xmlns="http://www.w3.org/2000/svg" xmlns:xlink="http://www.w3.org/1999/xlink" width="512px" height="512px" viewBox="0 0 384 384" version="1.1">
  <g id="surface1">
    <path style=" stroke:none;fill-rule:nonzero;fill:rgb(0%,0%,0%);fill-opacity:1;" d="M 191.8125 0 C 85.878906 0 0 85.878906 0 191.808594 C 0 297.746094 85.878906 383.621094 191.8125 383.621094 C 297.746094 383.621094 383.621094 297.746094 383.621094 191.808594 C 383.621094 85.878906 297.746094 0 191.8125 0 Z M 191.808594 333.902344 C 152.78125 333.902344 117.4375 318.164062 91.757812 292.695312 L 107.066406 264.902344 L 276.820312 264.902344 L 292.007812 292.554688 C 266.316406 318.109375 230.910156 333.902344 191.808594 333.902344 Z M 247.769531 211.785156 L 261.472656 236.835938 L 122.371094 236.835938 L 136.027344 211.785156 Z M 151.328125 183.71875 L 191.808594 109.46875 L 232.421875 183.71875 Z M 311.179688 268.914062 L 191.808594 49.71875 L 72.308594 268.707031 C 58.015625 246.539062 49.71875 220.144531 49.71875 191.808594 C 49.71875 113.335938 113.335938 49.714844 191.808594 49.714844 C 270.285156 49.714844 333.902344 113.332031 333.902344 191.808594 C 333.902344 220.234375 325.554688 246.707031 311.179688 268.914062 Z M 311.179688 268.914062 "/>
  </g>
</svg>

<svg xmlns="http://www.w3.org/2000/svg" viewBox="0 0 384 384"><path d="M191.813 0C85.879 0 0 85.879 0 191.809 0 297.746 85.879 383.62 191.813 383.62c105.933 0 191.808-85.875 191.808-191.812C383.621 85.879 297.746 0 191.813 0zm-.004 333.902c-39.028 0-74.371-15.738-100.051-41.207l15.308-27.793H276.82l15.188 27.653c-25.692 25.554-61.098 41.347-100.2 41.347zm55.96-122.117l13.704 25.05H122.37l13.656-25.05zm-96.44-28.066l40.48-74.25 40.613 74.25zm159.85 85.195L191.81 49.72 72.31 268.708c-14.293-22.168-22.59-48.562-22.59-76.898 0-78.473 63.617-142.094 142.09-142.094 78.476 0 142.093 63.617 142.093 142.094 0 28.425-8.347 54.898-22.722 77.105zm0 0"/></svg>
